svgs/sharp-regular/headphones.svg

<svg xmlns="http://www.w3.org/2000/svg" viewBox="0 0 512 512"><!--! Font Awesome Pro 6.5.2 by @fontawesome - https://fontawesome.com License - https://fontawesome.com/license (Commercial License) Copyright 2024 Fonticons, Inc. --><path d="M256 80C152 80 65.8 156.3 50.4 256H80h48v48V432v48H80 48 0V432 368 288C0 146.6 114.6 32 256 32s256 114.6 256 256v80 64 48H464 432 384V432 304 256h48 29.6C446.2 156.3 360 80 256 80zM464 304H432V432h32V368 304zM48 368v64H80V304H48v64z"/></svg>

<svg xmlns="http://www.w3.org/2000/svg" viewBox="0 0 512 512"><!--! Font Awesome Pro 6.6.0 by @fontawesome - https://fontawesome.com License - https://fontawesome.com/license (Commercial License) Copyright 2024 Fonticons, Inc. --><path d="M256 80C152 80 65.8 156.3 50.4 256L80 256l48 0 0 48 0 128 0 48-48 0-32 0L0 480l0-48 0-64 0-80C0 146.6 114.6 32 256 32s256 114.6 256 256l0 80 0 64 0 48-48 0-32 0-48 0 0-48 0-128 0-48 48 0 29.6 0C446.2 156.3 360 80 256 80zM464 304l-32 0 0 128 32 0 0-64 0-64zM48 368l0 64 32 0 0-128-32 0 0 64z"/></svg>
